X: 14
T:  Trs galinhas a cantar
N:  cano infantil
C: lyrics - popular
C: music - (popular francesa)
N:  verso portuguesa de "A vous dirais je Maman"
S:  A. Guimares
M: 2/4
K: C
L: 1/8
CC GG |AA G2 |FF EE| DD C2 |GG FF| EE ED |GG FF|EE ED |CC GG| AA G2 |FF EE| DD C2 |]
